X:1
T:A Light upon the Shore
T:James McGranahan
T:A Light upon the Shore
T:Public Domain
T:Public Domain
C:James McGranahan
Z:Public Domain
%%score ( 1 2 ) ( 3 4 )
L:1/8
M:6/8
K:Eb
V:1 treble 
V:2 treble 
V:3 bass 
V:4 bass 
V:1
 [B,E] | ([B,E][EG])[EG] ([EG][EB])[EB] | ([E-c]3 [EA]2) [Ec] | [EB]2 [EG] [B,E]2 [EG] | %4
w: 1.~We’ve|jour- * neyed many * a|day * Up-|on an o- cean|
w: 2.~We’ve|had * our storms * of|doubt, * Our|rains of bit- ter|
w: 3.~O|land * of calm- * est|rest, * Where|suns no more go|
 [DF]3- [DF]2 [B,E] | ([B,E][EG])[EG] (GB)[EB] | ([E-c]3 [EA]2) [Ec] | ([EB][EB])[EG] [DF]2 [DB] | %8
w: wide, * A-|mid * the mist * and|Of * many|a * surg- ing tide;|
w: tears, * Our|fight- * ings fierce * with-|With- * in|our * anx- ious fears;|
w: down! * O|hav- * en of * the|With * bliss|and * glo- ry crowned!|
 E3- E2 E | (EA)[Ec] (ed)[Ec] | ([E-B]3 [EG]2) [GB] | [Ac]2 [DF] [DF]2 [DB] | [EG]3- [EG]2 E | %13
w: But, * lo!|is * near! For * just|the * foam|I see it bright|and * clear,|
w: But, * lo!|are * past, They * can-|us * more;|We’ve sight- ed land|at * last,|
w: No * more|the * dark, The * break-|the * foam,|No more the wail,|for * hark!|
 (EA)[Ec] (ed)[Ec] | ([E-B]3 [EG]2) [Ge] | [Fd]2 [DB] [Ec]2 [E=A] | [DB]3- [DB]2 || %17
w: light * of home, * sweet||||
w: bless- * èd storm- * less|a * light|up- on the shore,|bro- *|
w: hear * the songs * of||||
"^Refrain" [B,E]/[B,E]/ | ([B,E][EG])[EG] (GB)[EB] | [Ec]3 [EA][EA][Ec] | [EB]2 [EG] E2 [EG] | %21
w: ||||
w: ther, It|flash- * es from * the|The night is al-|most o’er, bro- ther,|
w: ||||
 [DF]3- [DF]2 [B,E] | ([B,E][EG])[EG] (GB)[EB] | [Ec]3 [Ee][Ed][Ec] | [EB]2 [Ge] [Ge]2 [Ad] | %25
w: ||||
w: ha- * ven’s|just * at hand. * *|||
w: ||||
 [Ge]3- [Ge]2 |] %26
w: |
w: |
w: |
V:2
 x | x6 | x6 | x6 | x6 | x3 E2 x | x6 | x6 | E3- E2 E | C2 E2 x2 | x6 | x6 | x5 E | C2 E2 x2 | x6 | %15
w: |||||spray|||the * land|be- yond|||The|home. *||
w: |||||out,|||the * storms|not reach|||The|shore. There’s||
w: |||||blest,|||the * storm,|ers and|||We|home. *||
 x6 | x5 || x | x3 E2 x | x6 | x3 E2 x | x6 | x3 E2 x | x6 | x6 | x5 |] %26
w: |||||||||||
w: |||strand;||The||||||
w: |||||||||||
V:3
 [E,G,] | (G,B,)[E,B,] (B,G,)[E,G,] | ([A,,-A,]3 [A,,C]2) [A,,A,] | [E,G,]2 [E,B,] [G,B,]2 [E,B,] | %4
 [B,,B,]3- [B,,B,]2 [E,G,] | (G,B,)[E,B,] (B,G,)[E,G,] | ([A,,-A,]3 [A,,C]2) [A,,A,] | %7
 ([B,,G,][B,,G,])[B,,B,] [B,,B,]2 [B,,A,] | [E,G,]3- [E,G,]2 [E,G,] | %9
 [A,,A,]2 [A,,A,] (CB,)[A,,A,] | ([E,-G,]3 [E,B,]2) [E,B,] | [B,,B,]2 [B,,B,] [B,,B,]2 [B,,B,] | %12
 [E,B,]3- [E,B,]2 E, | ([A,,A,]2 [A,,A,]) (CB,)[A,,A,] | ([E,-G,]3 [E,B,]2) [E,B,] | %15
 [F,B,]2 [F,B,] [F,=A,]2 [F,C] | [B,,B,]3- [B,,B,]2 || [E,G,]/[E,G,]/ | (G,B,)[E,B,] (B,G,)[E,G,] | %19
 [A,,A,]3 [A,,C][A,,C][A,,A,] | [E,G,]2 [E,B,] [G,B,]2 [E,B,] | [B,,B,]3- [B,,B,]2 [E,G,] | %22
 (G,B,)[E,B,] (B,G,)[E,G,] | [A,,A,]3 [A,,C][A,,B,][A,,A,] | [B,,G,]2 [B,,B,] [B,,B,]2 [B,,B,] | %25
 [E,B,]3- [E,B,]2 |] %26
V:4
 x | E,2 E,2 x2 | x6 | x6 | x6 | E,2 E,2 x2 | x6 | x6 | x6 | x3 A,,2 x | x6 | x6 | x5 E, | %13
 x3 A,,2 x | x6 | x6 | x5 || x | E,2 E,2 x2 | x6 | x6 | x6 | E,2 E,2 x2 | x6 | x6 | x5 |] %26

